src/22/actions/exchange-positions-clockwise.svg

<svg xmlns="http://www.w3.org/2000/svg" viewBox="0 0 22 22">
  <defs id="defs3051">
    <style type="text/css" id="current-color-scheme">
      .ColorScheme-Text {
        color:#5d656b;
      }
      .ColorScheme-Highlight {
        color:#3daee9;
      }
      </style>
  </defs>
 <path 
    style="fill:currentColor;fill-opacity:1;stroke:none" 
	d="M 3 3 L 3 10 L 11 10 L 11 3 L 3 3 z M 4 4 L 10 4 L 10 9 L 4 9 L 4 4 z M 12 4.078125 L 12 5.0898438 L 12 8 L 13 8 L 13 5.3554688 A 6 6 0 0 1 17 11 L 18 11 A 7 7 0 0 0 12 4.078125 z M 4 11 A 7 7 0 0 0 10 17.921875 L 10 16.910156 L 10 14 L 9 14 L 9 16.644531 A 6 6 0 0 1 5 11 L 4 11 z "
	class="ColorScheme-Text"
    />
  <path
    style="fill:currentColor;fill-opacity:1;stroke:none" 
    d="m 15.5,12 a 3.499991,3.499991 0 0 0 -3.5,3.5 3.499991,3.499991 0 0 0 0.699219,2.0938 L 13.416016,16.877 A 2.5,2.5 0 0 1 13,15.5 2.5,2.5 0 0 1 15.5,13 2.5,2.5 0 0 1 16.876953,13.416 L 17.59375,12.6992 A 3.499991,3.499991 0 0 0 15.5,12 m 2.800781,1.4063 -0.716797,0.7167 A 2.5,2.5 0 0 1 18,15.5 2.5,2.5 0 0 1 15.5,18 2.5,2.5 0 0 1 14.123047,17.584 L 13.40625,18.3008 A 3.499991,3.499991 0 0 0 15.5,19 3.499991,3.499991 0 0 0 19,15.5 3.499991,3.499991 0 0 0 18.300781,13.4063 Z" 
	class="ColorScheme-Highlight"/>
</svg>

<svg xmlns="http://www.w3.org/2000/svg" viewBox="0 0 22 22"><path d="M3 3v7h8V3H3zm1 1h6v5H4V4zm8 .078V8h1V5.355A6 6 0 0 1 17 11h1a7 7 0 0 0-6-6.922zM4 11a7 7 0 0 0 6 6.922V14H9v2.645A6 6 0 0 1 5 11H4z" fill="currentColor" color="#5d656b"/><path d="M15.5 12a3.5 3.5 0 0 0-3.5 3.5 3.5 3.5 0 0 0 .7 2.094l.716-.717A2.5 2.5 0 0 1 13 15.5a2.5 2.5 0 0 1 2.5-2.5 2.5 2.5 0 0 1 1.377.416l.717-.717A3.5 3.5 0 0 0 15.5 12m2.8 1.406l-.716.717A2.5 2.5 0 0 1 18 15.5a2.5 2.5 0 0 1-2.5 2.5 2.5 2.5 0 0 1-1.377-.416l-.717.717A3.5 3.5 0 0 0 15.5 19a3.5 3.5 0 0 0 3.5-3.5 3.5 3.5 0 0 0-.7-2.094z" fill="currentColor" color="#3daee9"/></svg>
